assets/icons/qvision/laptop_windows.svg

<svg xmlns="http://www.w3.org/2000/svg" height="24" viewBox="0 0 24 24" width="24"><path d="M0 0h24v24H0z" fill="none"/><path d="M20 18v-1c1.1 0 1.99-.9 1.99-2L22 5c0-1.1-.9-2-2-2H4c-1.1 0-2 .9-2 2v10c0 1.1.9 2 2 2v1H0v2h24v-2h-4zM4 5h16v10H4V5z"/></svg>

<svg width="24" height="24" viewBox="0 0 24 24" fill="none" xmlns="http://www.w3.org/2000/svg">
<g clip-path="url(#clip0_147_3020)">
<path d="M20 18V17C21.1 17 21.99 16.1 21.99 15L22 5C22 3.9 21.1 3 20 3H4C2.9 3 2 3.9 2 5V15C2 16.1 2.9 17 4 17V18H0V20H24V18H20ZM4 5H20V15H4V5Z" fill="#323232"/>
</g>
<defs>
<clipPath id="clip0_147_3020">
<rect width="24" height="24" fill="white"/>
</clipPath>
</defs>
</svg>
